images/logos/pm2-icon.svg

<svg xmlns="http://www.w3.org/2000/svg" preserveAspectRatio="xMidYMid" viewBox="0 0 256 210">
  <defs>
    <linearGradient id="a" x1="67.1299837%" x2="46.1614684%" y1="64.6873025%" y2="45.7804854%">
      <stop offset="0%" stop-color="#520BF5"/>
      <stop offset="100%" stop-color="#9D1FE0"/>
      <stop offset="100%" stop-color="#9D1FE0"/>
    </linearGradient>
    <linearGradient id="b" x1="67.4626279%" x2="42.4094293%" y1="34.9939767%" y2="56.9018791%">
      <stop offset="0%" stop-color="#9E1FA7"/>
      <stop offset="100%" stop-color="#E540AE"/>
    </linearGradient>
    <linearGradient id="c" x1="100%" x2="29.9733771%" y1="50%" y2="50%">
      <stop offset="0%" stop-color="#4B6AF2"/>
      <stop offset="100%" stop-color="#4CA7EB"/>
    </linearGradient>
  </defs>
  <path fill="url(#a)" d="m175.280684 0-9.355082 16.0383089c-1.067879 1.8310606-2.992361 2.8515104-4.971459 2.8515104-.983081 0-1.980535-.2515193-2.891753-.783303-2.742279-1.5996629-3.66787-5.1209333-2.068208-7.8632125L161.968844 0h-16.798616c.001438.9802067-.222774 1.97191144-.748809 2.88025549L118.576732 47.5184665c-6.337901 10.9915549-19.937437 17.3634564-30.5113706 17.3634564h-8.2743455c-3.1748924 0-5.749013-2.5741206-5.749013-5.749013 0-3.1748924 2.5741206-5.7490129 5.749013-5.7490129h8.2743455c7.4947002 0 16.0829546-5.3265391 20.3485526-11.2450694C111.257646 38.1931408 119.38675 24.1468649 132.801227 0h-15.269378C93.4089903 51.9466437 79.0364579 41.8858711 35.9188608 41.8858711c-2.8543849 4.3232577-5.7245796 8.6623252-8.5315352 12.9352791h30.0903338c3.1748924 0 5.7490129 2.5741205 5.7490129 5.7490129 0 3.1748924-2.5741205 5.749013-5.7490129 5.749013H19.89205c-2.565497 3.9811915-5.0045158 7.8229694-7.2394446 11.441973l94.4548456-.664011-4.226962.0028745c5.720268.1164175 14.973304-3.2323825 19.453223-10.2749234l22.270239-35.199769c1.697396-2.6833518 5.247411-3.4824646 7.9322-1.7836312 2.681915 1.697396 3.481028 5.2474115 1.783631 7.9322006l-22.277425 35.2127043c-6.716284 10.5523132-19.428789 15.778166-29.330027 15.6100074l-96.88667744.7100031C1.33423619 97.3854048 0 102.663254.05651806 105.125013H128.48803L194.016717 4.51728692C189.880332 2.13307443 183.955944.20552722 176.374433 0h-1.093749Z"/>
  <path fill="url(#b)" d="M128.488605 105.12487H.05565571c-.41249168 6.091079 1.4870426 12.417868 5.06149139 17.977163h85.9876984c13.3794465-1.469554 25.2503925 4.094556 35.6128385 16.692329l21.563335 34.860508c1.693085 2.686226.885348 6.236241-1.800878 7.927888-.951462.599335-2.010717.885348-3.057038.885348-1.911546 0-3.778538-.951461-4.870851-2.687663-13.295192-21.550494-21.391061-33.740478-24.287605-36.56995-4.344817-4.244209-9.909655-9.577377-23.1598015-9.577377H12.3384219l7.6720577 12.183596h30.7040409c3.1748924 0 5.749013 2.57412 5.749013 5.749013 0 3.174892-2.5741206 5.749013-5.749013 5.749013H27.2499242l7.2322583 11.486527c51.7411165 0 58.9273827 5.749013 76.6918325 40.037841h15.072475c-12.871862-22.986271-21.005437-36.545571-24.400726-40.677899-5.0929341-6.198492-11.956282-10.846469-20.8419267-10.846469H73.027877c-3.1748924 0-5.7490129-2.574121-5.7490129-5.749013 0-3.174893 2.5741205-5.749013 5.7490129-5.749013h7.9759603c12.1906865 0 25.8699167 7.831593 30.8083187 17.363456l27.281941 44.638211c.191154.330568.342066.672635.461358 1.020727h20.554158l-6.56681-11.258282c-1.6011-2.742279-.674071-6.262112 2.068208-7.863212.911218-.530347 1.908672-.783303 2.891753-.783303 1.977661 0 3.90358 1.02045 4.971459 2.852947l9.94723 17.05185h5.056997c4.005625.012658 6.940379-.413586 12.664341-4.10651L128.488605 105.12487Z"/>
  <path fill="url(#c)" d="M194.017148 4.51728692 186.031769 16.669263l9.894051 14.841077c1.760636 2.6416714 1.047758 6.2118084-1.595351 7.9724437-.978769.6539502-2.086891.9658341-3.182078.9658341-1.858369 0-3.682243-.8982832-4.788928-2.559748l-7.187704-10.7808365-7.936512 12.0758017 28.352695 46.4045952c6.628611 10.845513 6.596992 24.3010778-.080487 35.1178458-.086235.136539-.176782.271641-.273078.402431l-3.472404 4.686883c-1.128243 1.520613-2.865883 2.325475-4.623643 2.325475-1.190046 0-2.390152-.367937-3.419226-1.129681-2.551124-1.891425-3.085782-5.491744-1.195794-8.042869l3.320055-4.478481c4.270079-7.075598 4.249957-15.8227209-.066114-22.8868205l-25.52418-41.7737653-36.349572 55.3155648 28.58553-43.0902888 14.116701 21.8088806c7.243756 11.191891 7.215011 25.6017922-.0733 36.7663752l-16.758373 25.672217-25.870558-41.157184 33.256603 52.909604 15.322557-20.429118c1.905797-2.538189 5.507554-3.052726 8.048618-1.148365 2.539626 1.904361 3.054163 5.508992 1.149802 8.048618l-17.967102 23.956137 8.738499 13.901113 42.35729-66.878267c4.830608-7.626066 4.886661-17.5172426.142288-25.1964867l-20.48517-33.1646184c-1.667214-2.7005988-.830732-6.2434281 1.871304-7.9120791 2.703473-1.668651 6.243428-.8307324 7.912079 1.8698665L228.734 84.2460357c7.039666 11.3974182 6.956306 26.0732113-.209839 37.3915803l-44.741693 70.642434c-.179657.284576-.386621.53897-.605084.780428l7.960946 12.672118c3.468764-2.740207 5.938221-5.04136 7.408372-6.903456 16.870651-21.36841 34.429317-47.041427 52.675999-77.019054 6.24811-10.265072 6.411587-22.9845535.229961-33.2192338-23.516338-38.9323156-49.642532-80.211551-57.435514-84.07356528Z"/>
</svg>

<?xml version="1.0" encoding="UTF-8"?>
<svg width="256px" height="210px" viewBox="0 0 256 210" version="1.1" xmlns="http://www.w3.org/2000/svg" preserveAspectRatio="xMidYMid">
    <title>PM2</title>
    <defs>
        <linearGradient x1="67.1299837%" y1="64.6873025%" x2="46.1614684%" y2="45.7804854%" id="pm2LinearGradient-1">
            <stop stop-color="#520BF5" offset="0%"></stop>
            <stop stop-color="#9D1FE0" offset="100%"></stop>
            <stop stop-color="#9D1FE0" offset="100%"></stop>
        </linearGradient>
        <linearGradient x1="67.4626279%" y1="34.9939767%" x2="42.4094293%" y2="56.9018791%" id="pm2LinearGradient-2">
            <stop stop-color="#9E1FA7" offset="0%"></stop>
            <stop stop-color="#E540AE" offset="100%"></stop>
        </linearGradient>
        <linearGradient x1="100%" y1="50%" x2="29.9733771%" y2="50%" id="pm2LinearGradient-3">
            <stop stop-color="#4B6AF2" offset="0%"></stop>
            <stop stop-color="#4CA7EB" offset="100%"></stop>
        </linearGradient>
    </defs>
    <g>
        <path d="M175.280684,0 L165.925602,16.0383089 C164.857723,17.8693695 162.933241,18.8898193 160.954143,18.8898193 C159.971062,18.8898193 158.973608,18.6383 158.06239,18.1065163 C155.320111,16.5068534 154.39452,12.985583 155.994182,10.2433038 L161.968844,0 L145.170228,0 C145.171666,0.980206707 144.947454,1.97191144 144.421419,2.88025549 L118.576732,47.5184665 C112.238831,58.5100214 98.639295,64.8819229 88.0653614,64.8819229 C88.0653614,64.8819229 85.3072462,64.8819229 79.7910159,64.8819229 C76.6161235,64.8819229 74.0420029,62.3078023 74.0420029,59.1329099 C74.0420029,55.9580175 76.6161235,53.383897 79.7910159,53.383897 L88.0653614,53.383897 C95.5600616,53.383897 104.148316,48.0573579 108.413914,42.1388276 C111.257646,38.1931408 119.38675,24.1468649 132.801227,0 L117.531849,0 C93.4089903,51.9466437 79.0364579,41.8858711 35.9188608,41.8858711 C33.0644759,46.2091288 30.1942812,50.5481963 27.3873256,54.8211502 L57.4776594,54.8211502 C60.6525518,54.8211502 63.2266723,57.3952707 63.2266723,60.5701631 C63.2266723,63.7450555 60.6525518,66.3191761 57.4776594,66.3191761 L19.89205,66.3191761 C17.326553,70.3003676 14.8875342,74.1421455 12.6526054,77.7611491 L107.107451,77.0971381 L102.880489,77.1000126 C108.600757,77.2164301 117.853793,73.8676301 122.333712,66.8250892 L144.603951,31.6253202 C146.301347,28.9419684 149.851362,28.1428556 152.536151,29.841689 C155.218066,31.539085 156.017179,35.0891005 154.319782,37.7738896 L132.042357,72.9865939 C125.326073,83.5389071 112.613568,88.7647599 102.71233,88.5966013 L5.82565256,89.3066044 C1.33423619,97.3854048 9.14060494e-14,102.663254 0.056518065,105.125013 L128.48803,105.125013 L194.016717,4.51728692 C189.880332,2.13307443 183.955944,0.205527213 176.374433,0 L175.280684,0 Z" fill="url(#pm2LinearGradient-1)"></path>
        <path d="M128.488605,105.12487 L0.0556557131,105.12487 C-0.356835966,111.215949 1.54269831,117.542738 5.1171471,123.102033 C6.57582306,123.102033 7.6414783,123.102033 8.31411281,123.102033 L8.36154217,123.102033 L91.1048455,123.102033 C104.484292,121.632479 116.355238,127.196589 126.717684,139.794362 L148.281019,174.65487 C149.974104,177.341096 149.166367,180.891111 146.480141,182.582758 C145.528679,183.182093 144.469424,183.468106 143.423103,183.468106 C141.511557,183.468106 139.644565,182.516645 138.552252,180.780443 C125.25706,159.229949 117.161191,147.039965 114.264647,144.210493 C109.91983,139.966284 104.354992,134.633116 91.1048455,134.633116 L12.3384219,134.633116 L20.0104796,146.816712 L50.7145205,146.816712 C53.8894129,146.816712 56.4635335,149.390832 56.4635335,152.565725 C56.4635335,155.740617 53.8894129,158.314738 50.7145205,158.314738 L27.2499242,158.314738 L34.4821825,169.801265 C86.223299,169.801265 93.4095652,175.550278 111.174015,209.839106 L126.24649,209.839106 C113.374628,186.852835 105.241053,173.293535 101.845764,169.161207 C96.7528299,162.962715 89.889482,158.314738 81.0038373,158.314738 L73.027877,158.314738 C69.8529846,158.314738 67.2788641,155.740617 67.2788641,152.565725 C67.2788641,149.390832 69.8529846,146.816712 73.027877,146.816712 L81.0038373,146.816712 C93.1945238,146.816712 106.873754,154.648305 111.812156,164.180168 L139.094097,208.818379 C139.285251,209.148947 139.436163,209.491014 139.555455,209.839106 L160.109613,209.839106 L153.542803,198.580824 C151.941703,195.838545 152.868732,192.318712 155.611011,190.717612 C156.522229,190.187265 157.519683,189.934309 158.502764,189.934309 C160.480425,189.934309 162.406344,190.954759 163.474223,192.787256 L173.421453,209.839106 L178.47845,209.839106 C182.484075,209.851764 185.418829,209.42552 191.142791,205.732596 L128.488605,105.12487 Z" fill="url(#pm2LinearGradient-2)"></path>
        <path d="M194.017148,4.51728692 L186.031769,16.669263 L195.92582,31.51034 C197.686456,34.1520114 196.973578,37.7221484 194.330469,39.4827837 C193.3517,40.1367339 192.243578,40.4486178 191.148391,40.4486178 C189.290022,40.4486178 187.466148,39.5503346 186.359463,37.8888698 L179.171759,27.1080333 L171.235247,39.183835 L199.587942,85.5884302 C206.216553,96.4339432 206.184934,109.889508 199.507455,120.706276 C199.42122,120.842815 199.330673,120.977917 199.234377,121.108707 L195.761973,125.79559 C194.63373,127.316203 192.89609,128.121065 191.13833,128.121065 C189.948284,128.121065 188.748178,127.753128 187.719104,126.991384 C185.16798,125.099959 184.633322,121.49964 186.52331,118.948515 L189.843365,114.470034 C194.113444,107.394436 194.093322,98.6473131 189.777251,91.5832135 L164.253071,49.8094482 L127.903499,105.125013 L156.489029,62.0347242 L170.60573,83.8436048 C177.849486,95.0354958 177.820741,109.445397 170.53243,120.60998 L153.774057,146.282197 L127.903499,105.125013 L161.160102,158.034617 L176.482659,137.605499 C178.388456,135.06731 181.990213,134.552773 184.531277,136.457134 C187.070903,138.361495 187.58544,141.966126 185.681079,144.505752 L167.713977,168.461889 L176.452476,182.363002 L218.809766,115.484735 C223.640374,107.858669 223.696427,97.9674924 218.952054,90.2882483 L198.466884,57.1236299 C196.79967,54.4230311 197.636152,50.8802018 200.338188,49.2115508 C203.041661,47.5428998 206.581616,48.3808184 208.250267,51.0814173 L228.734,84.2460357 C235.773666,95.6434539 235.690306,110.319247 228.524161,121.637616 L183.782468,192.28005 C183.602811,192.564626 183.395847,192.81902 183.177384,193.060478 L191.13833,205.732596 C194.607094,202.992389 197.076551,200.691236 198.546702,198.82914 C215.417353,177.46073 232.976019,151.787713 251.222701,121.810086 C257.470811,111.545014 257.634288,98.8255325 251.452662,88.5908522 C227.936324,49.6585366 201.81013,8.3793012 194.017148,4.51728692 Z" fill="url(#pm2LinearGradient-3)"></path>
    </g>
</svg>
